X:1
T:Hare in the Corn, The[6]
M:6/8
L:1/8
R:Jig
K:D
F2A AFA | B/c/dB AFE | ~F3 EDE | F2D DED | F2A AFA | B/c/dB AFA | 
Bcd ecA | ded d3 :: ~f3 fed | g2e ede | ~f3 fed | a^ga ba=g | ~f3 fed | 
~g2e edB | AB/c/d ecA | ded d3 :|
